!!!COM: Corelli, Arcangelo
!!!OTL: 
!!!ONM: Opus 6, No. 12
!!!OMV: 4
!!!CDT: 1653/2/17/-1713/1/8/
!!!OCY: Italia
**kern	**kern	**kern	**kern	**kern	**kern	**kern
*clefC	*clefG	*clefG	*clefG	*clefC	*clefG	*clefG
*k[b-]	*k[b-]	*k[b-]	*k[b-]	*k[b-]	*k[b-]	*k[b-]
*F:	*F:	*F:	*F:	*F:	*F:	*F:
*M3/4	*M3/4	*M3/4	*M3/4	*M3/4	*M3/4	*M3/4
=1	=1	=1	=1	=1	=1	=1
2.r	2.r	2.r	2.r	8F	2ff	4cc
.	.	.	.	8E	.	.
.	.	.	.	8F	.	4.ff
.	.	.	.	8G	.	.
.	.	.	.	8A	4r	.
.	.	.	.	8F	.	16ee
.	.	.	.	.	.	16ff
=2	=2	=2	=2	=2	=2	=2
2.r	2.r	2.r	2.r	8c	2ee	4gg
.	.	.	.	8C	.	.
.	.	.	.	8E	.	4.gg
.	.	.	.	8G	.	.
.	.	.	.	8E	4r	.
.	.	.	.	8C	.	16ff
.	.	.	.	.	.	16gg
=3	=3	=3	=3	=3	=3	=3
2.r	2.r	2.r	2.r	8F	4cc	4aa
.	.	.	.	8E	.	.
.	.	.	.	8F	4.ff	4.aa
.	.	.	.	8G	.	.
.	.	.	.	8A	.	.
.	.	.	.	8F	8gg	8bb-
=4	=4	=4	=4	=4	=4	=4
2.r	2.r	2.r	2.r	8c	2.ee	2.gg
.	.	.	.	8d	.	.
.	.	.	.	8c	.	.
.	.	.	.	8B-	.	.
.	.	.	.	8A	.	.
.	.	.	.	8G	.	.
=5	=5	=5	=5	=5	=5	=5
8F	4f	4ff	4aa	8F	4ff	4aa
8E	.	.	.	8E	.	.
8F	4f	4aa	4ccc	8F	4aa	4ccc
8G	.	.	.	8G	.	.
8A	4f	4cc	4ff	8A	4cc	4ff
8F	.	.	.	8F	.	.
=6	=6	=6	=6	=6	=6	=6
8E	2cc	4cc	4gg	8E	4cc	4gg
8D	.	.	.	8D	.	.
8E	.	4g	4ccc	8E	4g	4ccc
8F	.	.	.	8F	.	.
8G	4g	[4cc	4ee	8G	[4cc	4ee
8E	.	.	.	8E	.	.
=7	=7	=7	=7	=7	=7	=7
8F	8a	4cc]	4aa	8F	4cc]	4aa
8D	8f	.	.	8D	.	.
8G	4.g	4.cc	2dd	8G	4.cc	2dd
8F	.	.	.	8F	.	.
8G	.	.	.	8G	.	.
8GG	8g	8b	.	8GG	8b	.
=8	=8	=8	=8	=8	=8	=8
2.C	2.e	2.cc	2.cc	2.C	2.cc	2.cc
=9	=9	=9	=9	=9	=9	=9
8A	2.r	2.r	4ff	8A	2.r	4ff
8G	.	.	.	8G	.	.
8A	.	.	2aa	8A	.	2aa
8F	.	.	.	8F	.	.
8G	.	.	.	8G	.	.
8A	.	.	.	8A	.	.
=10	=10	=10	=10	=10	=10	=10
8B-	4b-	4ff	4dd	8B-	4ff	4dd
8A	.	.	.	8A	.	.
8B-	4f	4dd	2B-	8B-	4dd	2B-
8c	.	.	.	8c	.	.
8B-	4d	4B-	.	8B-	4B-	.
8A	.	.	.	8A	.	.
=11	=11	=11	=11	=11	=11	=11
8G	2.r	2.r	4gg	8G	2.r	4gg
8F	.	.	.	8F	.	.
8G	.	.	2bb-	8G	.	2bb-
8A	.	.	.	8A	.	.
8B-	.	.	.	8B-	.	.
8G	.	.	.	8G	.	.
=12	=12	=12	=12	=12	=12	=12
8c	4cc	4gg	4ee	8c	4gg	4ee
8B-	.	.	.	8B-	.	.
8c	4g	4ee	2c	8c	4ee	2c
8d	.	.	.	8d	.	.
8c	4e	4c	.	8c	4c	.
8B-	.	.	.	8B-	.	.
=13	=13	=13	=13	=13	=13	=13
8A	2.r	2.r	4aa	8A	2.r	4aa
8G	.	.	.	8G	.	.
8A	.	.	2ccc	8A	.	2ccc
8B-	.	.	.	8B-	.	.
8c	.	.	.	8c	.	.
8A	.	.	.	8A	.	.
=14	=14	=14	=14	=14	=14	=14
8d	4dd	4aa	2ff	8d	4aa	2ff
8D	.	.	.	8D	.	.
8F	4a	4ff	.	8F	4ff	.
8E	.	.	.	8E	.	.
8F	4f	4d	4r	8F	4d	4r
8D	.	.	.	8D	.	.
=15	=15	=15	=15	=15	=15	=15
8E	2c	4r	2gg	8E	4r	2gg
8D	.	.	.	8D	.	.
8E	.	4cc	.	8E	4cc	.
8F	.	.	.	8F	.	.
8G	4r	4e	4r	8G	4e	4r
8E	.	.	.	8E	.	.
=16	=16	=16	=16	=16	=16	=16
8F	2c	4r	2aa	8F	4r	2aa
8E	.	.	.	8E	.	.
8F	.	4cc	.	8F	4cc	.
8G	.	.	.	8G	.	.
8A	4r	4f	4r	8A	4f	4r
8F	.	.	.	8F	.	.
=17	=17	=17	=17	=17	=17	=17
8G	2B-	4r	2bb-	8G	4r	2bb-
8F	.	.	.	8F	.	.
8G	.	4dd	.	8G	4dd	.
8A	.	.	.	8A	.	.
8B-	4r	4g	8.bb-	8B-	4g	8.bb-
8G	.	.	.	8G	.	.
.	.	.	32aa	.	.	32aa
.	.	.	32bb-	.	.	32bb-
=18	=18	=18	=18	=18	=18	=18
8A	2A	4.ff	4.ccc	8A	4.ff	4.ccc
8B-	.	.	.	8B-	.	.
8A	.	.	.	8A	.	.
8G	.	8gg	8ee	8G	8gg	8ee
8F	4r	8aa	8ff	8F	8aa	8ff
8E	.	8gg	8bb-	8E	8gg	8bb-
=19	=19	=19	=19	=19	=19	=19
8F	4f	4ff	8aa	8F	4ff	8aa
8BB-	.	.	8gg	8BB-	.	8gg
4C	4.c	4.ff	2gg	4C	4.ff	2gg
4CC	.	.	.	4CC	.	.
.	8c	8ee	.	.	8ee	.
=20	=20	=20	=20	=20	=20	=20
2.FF	2.A	2.ff	2.ff	2.FF	2.ff	2.ff
=21	=21	=21	=21	=21	=21	=21
2AA	2f	4.f	4.cc	2AA	4.f	4.cc
.	.	8g	8e	.	8g	8e
4AA	4c	4a	4f	4AA	4a	4f
=22	=22	=22	=22	=22	=22	=22
4BB-	4d	4f	4dd	4BB-	4f	4dd
4C	4.c	4.f	2g	4C	4.f	2g
4CC	.	.	.	4CC	.	.
.	8c	8e	.	.	8e	.
=23	=23	=23	=23	=23	=23	=23
2.FF	2.A	2.f	2.f	2.FF	2.f	2.f
==	==	==	==	==	==	==
*-	*-	*-	*-	*-	*-	*-
!!!RWG: This file only contains pitch and duration data.
!!!RWG: Transposing instruments are not transposed.
!!!RWG: Durations of rests and tied notes may be interpreted.
!!!RWG: Key is interpreted using the Humdrum key tool.
!!!SCA: 
!!!YOR: Chrysander Edition
!!!AGN: concerto grosso
!!!AFT: stage1
!!!ENC: F. Bennion
!!!END: 1997/04/15
!!!AST: baroque
!!!YEC: Copyright 1994, Center for Computer Assisted Research in the Humanities
!!!YEM: Rights to all derivative electronic formats reserved.
!!!YEM: Refer to licensing agreement for further details.
!!!YEN: United States of America
!!!EED: W.B. Hewlett
!!!KEY: 2570390410
!!!EMD: Converted from MuseData to Humdrum Aug 2, 1999, by Bret Aarden using muse2kern.
!!!VTS: 2241155886
